X:6
T:The Barrowburn reel
R:Reel
S:John Chambers (jc_music.abc)
Z:Transcription:John Chambers?, chords:Mike Long
M:C|
L:1/8
K:D
"D"~D2DE FAAd|"G"~B2BA BddB|"D"~A2AB d2de|"A"fedB AFEF|\
"D"~D2DE FAAd|
"G"~B2BA Bdde|"D"f2af "A"e2fe|"G"dBAB "D"d2:|\
|:cd|\
"A"~e2ef ecBA|"D"~f2fg fdBA|
"G"~g2ga "(A)"gecA|"D"a2ag f2ef|\
"G"g2ga "(A)"gecA|"D"a2ag f2ef|"G"g2ag "D"f2ed|"A"dBAB "D"d2:|
